logos/mootools.svg

<?xml version="1.0" encoding="UTF-8" standalone="no"?>
<svg width="512px" height="109px" viewBox="0 0 512 109" version="1.1" xmlns="http://www.w3.org/2000/svg" xmlns:xlink="http://www.w3.org/1999/xlink" preserveAspectRatio="xMidYMid">
	<g>
		<path d="M154.17687,80.0806023 C152.567582,82.2461103 150.69486,84.3149475 148.558661,86.2871001 C140.493081,93.4298162 131.25882,96.9997695 120.857284,96.9969602 C110.61798,96.9941729 101.973005,93.4750145 94.9230428,86.4387992 L94.2571632,97.2877257 L76.615989,97.2877257 L76.615989,97.2877257 L79.3571907,50.8502387 C79.6711331,45.7428807 74.8868477,41.6019314 69.8799232,41.6019314 C64.8729986,41.6019314 59.7691523,45.7428807 59.4559122,50.8502387 L56.7147106,97.2877257 L38.1647188,97.2877257 L40.9059204,50.8502387 C41.2191605,45.7428807 35.8919726,41.3708642 30.885048,41.3708642 C25.8788258,41.3708642 21.3185844,45.7421783 21.0053443,50.8502387 L18.2641427,97.2877257 L0.481799726,97.2877257 L4.92545405,26.454738 L18.5233032,26.454738 C22.1655967,24.571786 26.8332949,23.5021344 31.0894266,23.5021344 C38.9878519,23.5021344 46.9979479,27.1683073 51.3200988,32.922513 C56.3480933,27.1683073 63.0385075,23.5021344 70.9369328,23.5021344 C80.9645777,23.5021344 90.4757567,29.409593 94.7986827,37.9992784 L94.7986827,37.9992784 C95.8836807,36.7547131 97.0619505,35.5454292 98.3334979,34.3714239 C106.398376,27.2280055 115.591199,23.6587545 125.911265,23.6615638 C136.314206,23.6643731 145.055429,27.2385405 152.135638,34.3854705 C153.995017,36.3536128 155.578844,38.4206359 156.887174,40.5865535 C158.496771,38.415282 160.36956,36.3435767 162.505569,34.3714239 C170.570447,27.2280055 179.76327,23.6587545 190.083336,23.6615638 C200.486277,23.6643731 209.227501,27.2385405 216.307709,34.3854705 C223.211632,41.6932346 226.316642,50.364225 225.625547,60.399144 C224.939369,70.3539973 220.6418,78.9835501 212.730733,86.2871001 C204.665152,93.4298162 195.430892,96.9997695 185.029355,96.9969602 C174.709289,96.9941509 166.008801,93.4192812 158.928593,86.2716488 C157.069454,84.3041284 155.485547,82.2404325 154.17687,80.0806023 L154.17687,80.0806023 Z M139.091226,46.069465 C135.283182,42.134299 130.50873,40.1656626 124.765059,40.1642579 C119.022091,40.1621509 113.933695,42.1286804 109.500576,46.0617394 C105.144713,50.0755665 102.777152,54.8521262 102.395084,60.3914184 C102.013015,65.9321152 103.721789,70.7100796 107.524916,74.7260137 C111.415835,78.661882 116.23313,80.6284115 121.976099,80.6305185 C127.719067,80.6326255 132.76462,78.6667984 137.115567,74.7337394 C141.553602,70.7192099 143.964708,65.9412455 144.346776,60.4019534 C144.728143,54.8633635 142.975122,50.0861015 139.091226,46.069465 Z M203.263298,46.069465 C199.455254,42.134299 194.680801,40.1656626 188.93713,40.1642579 C183.194162,40.1621509 178.105767,42.1286804 173.672647,46.0617394 C169.316785,50.0755665 166.949224,54.8521262 166.567155,60.3914184 C166.185086,65.9321152 167.89386,70.7100796 171.696988,74.7260137 C175.587907,78.661882 180.405202,80.6284115 186.14817,80.6305185 C191.891139,80.6326255 196.936691,78.6667984 201.287638,74.7337394 C205.725674,70.7192099 208.136779,65.9412455 208.518848,60.4019534 C208.900214,54.8633635 207.147193,50.0861015 203.263298,46.069465 Z" fill="#414347"></path>
		<path d="M346.282488,80.0357591 C344.665755,82.2175536 342.781941,84.3013387 340.631001,86.2871001 C332.565421,93.4298162 323.33116,96.9997695 312.929624,96.9969602 C302.609558,96.9941509 293.90907,93.4192812 286.828861,86.2716488 C279.925641,78.9659918 276.817119,70.334332 277.503298,60.3787764 C278.040741,52.5828433 280.75612,45.6113719 285.650093,39.4640329 L257.17149,39.4640329 L255.17476,68.5461948 C254.57848,77.2213992 256.848417,80.0812949 263.757959,80.0812949 C267.138985,80.0812949 270.199045,80.0911276 270.199045,80.0911276 L269.257218,96.4372016 C269.257218,96.4372016 262.523962,96.402085 256.790826,96.402085 C250.174156,96.402085 244.733191,94.2761262 241.603599,90.5994184 C238.063144,86.4830508 236.743462,80.0138711 237.39031,70.6033251 L238.643973,39.4626283 L229.236236,39.4626283 L230.338897,23.4080219 L318.453465,23.4094266 L318.435984,23.6639479 L318.435984,23.6639479 C328.640197,23.7689851 337.230638,27.3423778 344.207978,34.3854705 C346.080221,36.3672287 347.673085,38.4492407 348.986629,40.6315203 C350.603676,38.4438808 352.48756,36.3571868 354.63831,34.3714239 C362.703188,27.2280055 371.896011,23.6587545 382.216077,23.6615638 C392.619018,23.6643731 401.360241,27.2385405 408.44045,34.3854705 C415.344373,41.6932346 418.449383,50.364225 417.758288,60.399144 C417.07211,70.3539973 412.77454,78.9835501 404.863473,86.2871001 C396.797893,93.4298162 387.563632,96.9997695 377.162096,96.9969602 C366.84203,96.9941509 358.141542,93.4192812 351.061333,86.2716488 C349.189332,84.2905158 347.596384,82.2118719 346.282488,80.0357591 L346.282488,80.0357591 Z M331.163567,46.069465 C327.355523,42.134299 322.58107,40.1656626 316.837399,40.1642579 C311.094431,40.1621509 306.006036,42.1286804 301.572916,46.0617394 C297.217053,50.0755665 294.849492,54.8521262 294.467424,60.3914184 C294.085355,65.9321152 295.794129,70.7100796 299.597257,74.7260137 C303.488176,78.661882 308.305471,80.6284115 314.048439,80.6305185 C319.791407,80.6326255 324.83696,78.6667984 329.187907,74.7337394 C333.625942,70.7192099 336.037048,65.9412455 336.419117,60.4019534 C336.800483,54.8633635 335.047462,50.0861015 331.163567,46.069465 Z M395.396038,46.069465 C391.587995,42.134299 386.813542,40.1656626 381.069871,40.1642579 C375.326903,40.1621509 370.238508,42.1286804 365.805388,46.0617394 C361.449525,50.0755665 359.081964,54.8521262 358.699896,60.3914184 C358.317827,65.9321152 360.026601,70.7100796 363.829728,74.7260137 C367.720647,78.661882 372.537942,80.6284115 378.280911,80.6305185 C384.023879,80.6326255 389.069432,78.6667984 393.420379,74.7337394 C397.858414,70.7192099 400.26952,65.9412455 400.651588,60.4019534 C401.032955,54.8633635 399.279934,50.0861015 395.396038,46.069465 Z" fill="#6E788C"></path>
		<path d="M463.675347,20.4975583 C463.375451,10.4141783 446.869948,0.441766804 446.869948,0.441766804 L443.986173,1.13496845 L449.394831,17.044192 C449.394831,17.044192 449.245235,21.3565103 444.946963,22.6003402 C440.649394,23.8448724 437.635687,20.626085 437.635687,20.626085 L433.418886,4.64943759 L430.431166,5.87922085 C430.431166,5.87922085 422.223012,27.973882 423.316543,30.7298326 C424.881339,37.8599067 429.471078,44.1099588 429.987995,54.8767078 C430.504911,65.6427545 423.00541,90.6078464 422.277794,97.0756214 C421.551583,103.544099 427.242579,108.683062 432.853509,108.828444 C438.464439,108.973827 443.920154,104.205695 444.084499,99.0098436 C444.249547,93.8139918 443.689789,68.7505734 445.024922,57.6874403 C446.362162,46.6250096 463.97454,30.5802359 463.675347,20.4975583 L463.675347,20.4975583 Z M433.399923,103.628379 C430.389728,103.796938 427.812872,101.492587 427.644313,98.4802853 C427.476455,95.4686859 429.779402,92.8904252 432.789597,92.7218656 C435.799791,92.5533059 438.375945,94.8583594 438.545207,97.8699588 C438.713064,100.882261 436.410118,103.460521 433.399923,103.628379 L433.399923,103.628379 Z" fill="#414347"></path>
		<path d="M470.308872,83.0324938 C470.308872,83.0324938 465.897525,88.070321 460.170008,95.0346447 C471.931962,103.39099 488.214826,105.228291 498.604422,93.8083731 C501.632878,90.4821289 507.734036,81.8919067 501.233251,69.5104966 C494.733169,57.1297888 477.450886,51.176823 483.0871,43.2826118 C487.357278,37.3036598 498.143693,42.6982716 502.366815,46.9213937 C504.068565,45.373454 509.4702,40.1509136 511.948027,37.2102497 C500.490184,22.8868916 475.935254,21.4288505 467.470749,36.3913306 C453.473273,61.1337833 493.650173,72.2868148 485.968066,83.9097064 C480.886694,91.5960274 470.308872,83.0324938 470.308872,83.0324938 L470.308872,83.0324938 Z" fill="#6E788C"></path>
	</g>
</svg>

<svg width="512" height="109" xmlns="http://www.w3.org/2000/svg" preserveAspectRatio="xMidYMid">
	<path d="M154.177 80.08c-1.61 2.166-3.482 4.235-5.618 6.207-8.066 7.143-17.3 10.713-27.702 10.71-10.239-.003-18.884-3.522-25.934-10.558l-.666 10.849H76.616l2.741-46.438c.314-5.107-4.47-9.248-9.477-9.248-5.007 0-10.11 4.14-10.424 9.248l-2.741 46.438h-18.55l2.74-46.438c.314-5.107-5.013-9.48-10.02-9.48-5.006 0-9.566 4.372-9.88 9.48l-2.74 46.438H.481l4.443-70.833h13.598c3.643-1.883 8.31-2.953 12.566-2.953 7.899 0 15.909 3.666 20.231 9.42 5.028-5.754 11.719-9.42 19.617-9.42 10.028 0 19.539 5.908 23.862 14.497a46.798 46.798 0 0 1 3.534-3.628c8.065-7.143 17.258-10.712 27.578-10.71 10.403.003 19.144 3.578 26.225 10.724 1.859 1.969 3.443 4.036 4.751 6.202 1.61-2.172 3.483-4.243 5.619-6.216 8.064-7.143 17.257-10.712 27.577-10.71 10.403.003 19.145 3.578 26.225 10.724 6.904 7.308 10.009 15.98 9.318 26.014-.687 9.955-4.984 18.585-12.895 25.888-8.066 7.143-17.3 10.713-27.702 10.71-10.32-.003-19.02-3.578-26.1-10.725-1.86-1.968-3.443-4.032-4.752-6.191ZM139.09 46.07c-3.808-3.936-8.582-5.904-14.326-5.906-5.743-.002-10.831 1.965-15.264 5.898-4.356 4.014-6.724 8.79-7.106 14.33-.382 5.54 1.327 10.318 5.13 14.334 3.89 3.936 8.708 5.902 14.451 5.905 5.743.002 10.789-1.964 15.14-5.897 4.438-4.015 6.849-8.793 7.23-14.332.382-5.539-1.37-10.316-5.255-14.333Zm64.172 0c-3.808-3.936-8.582-5.904-14.326-5.906-5.743-.002-10.831 1.965-15.264 5.898-4.356 4.014-6.724 8.79-7.106 14.33-.382 5.54 1.327 10.318 5.13 14.334 3.89 3.936 8.708 5.902 14.451 5.905 5.743.002 10.789-1.964 15.14-5.897 4.438-4.015 6.849-8.793 7.23-14.332.382-5.539-1.37-10.316-5.255-14.333Z" fill="#414347"/>
	<path d="M346.282 80.036c-1.616 2.182-3.5 4.265-5.651 6.251-8.066 7.143-17.3 10.713-27.701 10.71-10.32-.003-19.02-3.578-26.101-10.725-6.903-7.306-10.012-15.938-9.326-25.893.538-7.796 3.253-14.768 8.147-20.915h-28.479l-1.996 29.082c-.597 8.675 1.673 11.535 8.583 11.535 3.381 0 6.441.01 6.441.01l-.942 16.346s-6.733-.035-12.466-.035c-6.617 0-12.058-2.126-15.187-5.803-3.54-4.116-4.86-10.585-4.214-19.996l1.254-31.14h-9.408l1.103-16.055 88.114.001-.017.255c10.204.105 18.795 3.678 25.772 10.721 1.872 1.982 3.465 4.064 4.779 6.247 1.617-2.188 3.5-4.275 5.651-6.26 8.065-7.144 17.258-10.713 27.578-10.71 10.403.002 19.144 3.577 26.224 10.723 6.904 7.308 10.01 15.98 9.318 26.014-.686 9.955-4.983 18.585-12.895 25.888-8.065 7.143-17.3 10.713-27.7 10.71-10.321-.003-19.021-3.578-26.102-10.725-1.872-1.981-3.465-4.06-4.779-6.236Zm-15.118-33.967c-3.808-3.935-8.583-5.903-14.327-5.905-5.743-.002-10.831 1.965-15.264 5.898-4.356 4.014-6.724 8.79-7.106 14.33-.382 5.54 1.327 10.318 5.13 14.334 3.891 3.936 8.708 5.902 14.451 5.905 5.743.002 10.789-1.964 15.14-5.897 4.438-4.015 6.849-8.793 7.231-14.332.381-5.539-1.372-10.316-5.255-14.333Zm64.232 0c-3.808-3.935-8.582-5.903-14.326-5.905-5.743-.002-10.831 1.965-15.265 5.898-4.355 4.014-6.723 8.79-7.105 14.33-.382 5.54 1.327 10.318 5.13 14.334 3.89 3.936 8.708 5.902 14.45 5.905 5.744.002 10.79-1.964 15.14-5.897 4.438-4.015 6.85-8.793 7.232-14.332.381-5.539-1.372-10.316-5.256-14.333Z" fill="#6E788C"/>
	<path d="M463.675 20.498C463.375 10.414 446.87.442 446.87.442l-2.884.693 5.409 15.91s-.15 4.312-4.448 5.555c-4.298 1.245-7.311-1.974-7.311-1.974L433.419 4.65l-2.988 1.23s-8.208 22.095-7.114 24.85c1.564 7.13 6.154 13.381 6.671 24.148.517 10.766-6.983 35.73-7.71 42.199-.726 6.468 4.965 11.607 10.576 11.752 5.61.146 11.066-4.622 11.23-9.818.166-5.196-.394-30.26.94-41.323 1.338-11.062 18.95-27.107 18.651-37.19Zm-30.275 83.13a5.46 5.46 0 0 1-5.756-5.148 5.461 5.461 0 0 1 5.146-5.758 5.46 5.46 0 0 1 5.755 5.148 5.46 5.46 0 0 1-5.145 5.758Z" fill="#414347"/>
	<path d="M470.309 83.032s-4.411 5.038-10.139 12.003c11.762 8.356 28.045 10.193 38.434-1.227 3.029-3.326 9.13-11.916 2.63-24.298-6.5-12.38-23.783-18.333-18.147-26.227 4.27-5.98 15.057-.585 19.28 3.638 1.702-1.548 7.103-6.77 9.581-9.71-11.458-14.324-36.013-15.782-44.477-.82-13.998 24.743 26.18 35.896 18.497 47.519-5.081 7.686-15.66-.878-15.66-.878Z" fill="#6E788C"/>
</svg>
